src/assets/images/mobile/LoginInfo.svg

<svg width="96" height="69" viewBox="0 0 96 69" fill="none" xmlns="http://www.w3.org/2000/svg">
<g opacity="0.87">
<g opacity="0.37">
<ellipse cx="69.1655" cy="38.0482" rx="9.16554" ry="8.87993" fill="#98D8E7"/>
<ellipse cx="86.4254" cy="38.0482" rx="9.16556" ry="8.87993" fill="#98D8E7"/>
<ellipse cx="71.189" cy="49.2346" rx="6.54682" ry="6.3428" fill="#98D8E7"/>
<ellipse cx="83.8066" cy="49.2346" rx="6.54682" ry="6.3428" fill="#98D8E7"/>
<rect x="72.2603" y="37.5869" width="9.6417" height="10.7251" fill="#98D8E7"/>
</g>
<g opacity="0.55">
<ellipse cx="70.7665" cy="39.0598" rx="7.63567" ry="7.25065" fill="#98D8E7"/>
<ellipse cx="85.1455" cy="39.0598" rx="7.63566" ry="7.25065" fill="#98D8E7"/>
<ellipse cx="72.4523" cy="48.1937" rx="5.45403" ry="5.17903" fill="#98D8E7"/>
<ellipse cx="82.9638" cy="48.1937" rx="5.45404" ry="5.17903" fill="#98D8E7"/>
<rect x="73.3449" y="38.6831" width="8.03233" height="8.75728" fill="#98D8E7"/>
</g>
<ellipse cx="72.3676" cy="39.6347" rx="6.10576" ry="5.71285" fill="#7FDEE4"/>
<ellipse cx="83.8656" cy="39.6347" rx="6.10576" ry="5.71285" fill="#7FDEE4"/>
<ellipse cx="73.7156" cy="46.8314" rx="4.36126" ry="4.08061" fill="#7FDEE4"/>
<ellipse cx="82.1211" cy="46.8314" rx="4.36126" ry="4.08061" fill="#7FDEE4"/>
<rect x="74.4293" y="39.338" width="6.42297" height="6.89994" fill="#7FDEE4"/>
<path d="M80.2258 28.1016C80.7222 27.6621 81.064 27.186 81.2512 26.6733C81.4465 26.1606 81.5442 25.6764 81.5442 25.2207C81.5442 24.708 81.4384 24.2645 81.2268 23.8901C81.0234 23.5076 80.7955 23.1781 80.5432 22.9014C80.4293 22.763 80.3723 22.5881 80.3723 22.3765C80.3723 22.1567 80.4333 21.9289 80.5554 21.6929C80.6775 21.4487 80.8362 21.2249 81.0315 21.0215C81.2349 20.818 81.4669 20.6512 81.7273 20.521C81.9877 20.3908 82.2603 20.3257 82.5452 20.3257C82.8625 20.3257 83.127 20.4315 83.3386 20.6431C83.5502 20.8465 83.7211 21.0988 83.8513 21.3999C83.9815 21.701 84.0751 22.0225 84.1321 22.3643C84.189 22.6979 84.2175 22.995 84.2175 23.2554C84.2175 23.8088 84.1199 24.3377 83.9246 24.8423C83.7292 25.355 83.4648 25.8351 83.1311 26.2827C82.8056 26.7303 82.4231 27.1413 81.9836 27.5156C81.5442 27.8981 81.0803 28.2358 80.592 28.5288L80.2258 28.1016Z" fill="#7FDEE4"/>
<path d="M74.5012 28.1016C74.0048 27.6621 73.663 27.186 73.4758 26.6733C73.2805 26.1606 73.1829 25.6764 73.1829 25.2207C73.1829 24.708 73.2887 24.2645 73.5002 23.8901C73.7037 23.5076 73.9316 23.1781 74.1838 22.9014C74.2978 22.763 74.3547 22.5881 74.3547 22.3765C74.3547 22.1567 74.2937 21.9289 74.1716 21.6929C74.0496 21.4487 73.8909 21.2249 73.6956 21.0215C73.4921 20.818 73.2602 20.6512 72.9998 20.521C72.7393 20.3908 72.4667 20.3257 72.1819 20.3257C71.8645 20.3257 71.6 20.4315 71.3884 20.6431C71.1768 20.8465 71.0059 21.0988 70.8757 21.3999C70.7455 21.701 70.6519 22.0225 70.595 22.3643C70.538 22.6979 70.5095 22.995 70.5095 23.2554C70.5095 23.8088 70.6072 24.3377 70.8025 24.8423C70.9978 25.355 71.2623 25.8351 71.5959 26.2827C71.9215 26.7303 72.304 27.1413 72.7434 27.5156C73.1829 27.8981 73.6467 28.2358 74.135 28.5288L74.5012 28.1016Z" fill="#7FDEE4"/>
</g>
<g clip-path="url(#clip0_557_116)">
<path fill-rule="evenodd" clip-rule="evenodd" d="M45.0377 58.2498C44.7948 57.3447 44.7674 56.3952 44.9576 55.4776C45.1478 54.5599 45.5503 53.6995 46.1329 52.9654C46.7155 52.2313 47.4619 51.6439 48.3124 51.2503C49.1629 50.8566 50.0938 50.6676 51.0304 50.6985L51.2121 50.3837L51.9193 49.159L52.6264 47.9343L54.5582 47.4166L54.0406 45.4848L57.9043 44.4495L58.9396 48.3132L55.9294 53.5269C56.384 54.2592 56.6754 55.0808 56.784 55.9359C56.8925 56.7909 56.8155 57.6593 56.5583 58.482C56.3011 59.3046 55.8696 60.0621 55.2933 60.7031C54.7171 61.344 54.0095 61.8532 53.2187 62.1961C52.4279 62.539 51.5726 62.7075 50.7109 62.6901C49.8491 62.6728 49.0012 62.47 48.2249 62.0955C47.4486 61.721 46.7621 61.1837 46.2121 60.5201C45.6621 59.8565 45.2615 59.0822 45.0377 58.2498V58.2498ZM51.8685 60.5606C52.1247 60.492 52.3431 60.3244 52.4757 60.0947C52.6083 59.865 52.6442 59.5921 52.5756 59.3359C52.5069 59.0797 52.3393 58.8613 52.1097 58.7287C51.88 58.5961 51.607 58.5601 51.3508 58.6288C50.8385 58.7661 50.2926 58.6942 49.8332 58.429C49.3738 58.1638 49.0386 57.7269 48.9014 57.2146C48.8327 56.9584 48.6651 56.74 48.4354 56.6074C48.2057 56.4748 47.9328 56.4388 47.6766 56.5075C47.4204 56.5761 47.202 56.7437 47.0694 56.9734C46.9368 57.2031 46.9009 57.476 46.9695 57.7322C47.2441 58.7569 47.9145 59.6306 48.8332 60.161C49.7519 60.6915 50.8438 60.8352 51.8685 60.5606Z" fill="url(#paint0_linear_557_116)"/>
</g>
<rect x="-0.250766" y="0.661148" width="5.57815" height="6.98775" rx="2.78908" transform="matrix(-0.911914 0.410381 0.410381 0.911914 17.3971 56.4591)" fill="#4B4B4B" stroke="black"/>
<rect x="-0.165941" y="0.68736" width="5.57815" height="6.98775" rx="2.78908" transform="matrix(-0.853301 0.521419 0.521419 0.853301 35.4854 55.7892)" fill="#4B4B4B" stroke="black"/>
<path d="M39.6088 37.3956C40.4291 37.5306 41.1367 36.8145 40.992 35.9959C40.7937 34.8743 39.2943 34.6275 38.7471 35.6264C38.3476 36.3555 38.7885 37.2606 39.6088 37.3956Z" fill="#4B4B4B" stroke="black"/>
<mask id="path-22-inside-1_557_116" fill="white">
<path fill-rule="evenodd" clip-rule="evenodd" d="M44.3997 56.0034C44.583 56.0249 44.7691 56.0377 44.9576 56.0411C48.0457 56.0975 50.5948 53.6398 50.6512 50.5517C50.6949 48.1624 49.2335 46.0957 47.1396 45.2566C46.0412 39.0783 40.6995 34.3355 34.1883 34.2166L14.0208 33.8484C6.61984 33.7132 0.510593 39.6034 0.375447 47.0043C0.283247 52.0535 2.9954 56.5014 7.07844 58.8613C6.76749 59.8588 6.84133 60.9757 7.3733 61.9697L9.35214 65.6672C10.4048 67.6341 12.8527 68.3753 14.8196 67.3226C16.7865 66.27 17.5277 63.8221 16.475 61.8552L15.8526 60.6921L25.9433 60.8764C26.0016 61.4741 26.1947 62.0679 26.533 62.6125L28.7461 66.1748C29.9233 68.0698 32.4139 68.6516 34.3088 67.4744C36.2038 66.2971 36.7857 63.8066 35.6084 61.9116L35.028 60.9773C38.8048 60.6753 42.1514 58.8026 44.3997 56.0034Z"/>
</mask>
<path fill-rule="evenodd" clip-rule="evenodd" d="M44.3997 56.0034C44.583 56.0249 44.7691 56.0377 44.9576 56.0411C48.0457 56.0975 50.5948 53.6398 50.6512 50.5517C50.6949 48.1624 49.2335 46.0957 47.1396 45.2566C46.0412 39.0783 40.6995 34.3355 34.1883 34.2166L14.0208 33.8484C6.61984 33.7132 0.510593 39.6034 0.375447 47.0043C0.283247 52.0535 2.9954 56.5014 7.07844 58.8613C6.76749 59.8588 6.84133 60.9757 7.3733 61.9697L9.35214 65.6672C10.4048 67.6341 12.8527 68.3753 14.8196 67.3226C16.7865 66.27 17.5277 63.8221 16.475 61.8552L15.8526 60.6921L25.9433 60.8764C26.0016 61.4741 26.1947 62.0679 26.533 62.6125L28.7461 66.1748C29.9233 68.0698 32.4139 68.6516 34.3088 67.4744C36.2038 66.2971 36.7857 63.8066 35.6084 61.9116L35.028 60.9773C38.8048 60.6753 42.1514 58.8026 44.3997 56.0034Z" fill="url(#paint1_linear_557_116)"/>
<path d="M44.3997 56.0034L43.6201 55.3772L43.9667 54.9456L44.5165 55.0102L44.3997 56.0034ZM47.1396 45.2567L46.7676 46.1849L46.2522 45.9784L46.1551 45.4317L47.1396 45.2567ZM7.07846 58.8613L7.57887 57.9956L8.27109 58.3956L8.03315 59.1589L7.07846 58.8613ZM7.37332 61.9697L6.49164 62.4415L6.49164 62.4415L7.37332 61.9697ZM9.35216 65.6672L10.2338 65.1954L10.2338 65.1954L9.35216 65.6672ZM16.475 61.8552L17.3567 61.3834L17.3567 61.3834L16.475 61.8552ZM15.8526 60.6921L14.9709 61.164L14.1666 59.6612L15.8708 59.6923L15.8526 60.6921ZM25.9433 60.8764L25.9616 59.8766L26.8521 59.8928L26.9386 60.7793L25.9433 60.8764ZM26.533 62.6125L25.6836 63.1402L25.6836 63.1402L26.533 62.6125ZM28.7461 66.1748L29.5955 65.6471L29.5955 65.6471L28.7461 66.1748ZM34.3089 67.4744L33.7812 66.625L33.7812 66.625L34.3089 67.4744ZM35.6084 61.9116L34.759 62.4393L34.759 62.4393L35.6084 61.9116ZM35.028 60.9773L34.1786 61.505L33.3127 60.1113L34.9483 59.9805L35.028 60.9773ZM44.5165 55.0102C44.6672 55.028 44.8204 55.0384 44.9759 55.0413L44.9394 57.041C44.7179 57.0369 44.4989 57.0219 44.2829 56.9965L44.5165 55.0102ZM44.9759 55.0413C47.5118 55.0876 49.6051 53.0694 49.6514 50.5334L51.6511 50.5699C51.5846 54.2103 48.5797 57.1074 44.9394 57.041L44.9759 55.0413ZM49.6514 50.5334C49.6872 48.5729 48.4887 46.8746 46.7676 46.1849L47.5116 44.3284C49.9783 45.3169 51.7025 47.7518 51.6511 50.5699L49.6514 50.5334ZM46.1551 45.4317C45.1387 39.7148 40.1943 35.3265 34.1701 35.2165L34.2066 33.2168C41.2047 33.3446 46.9438 38.4418 48.1242 45.0816L46.1551 45.4317ZM34.1701 35.2165L14.0026 34.8482L14.0391 32.8485L34.2066 33.2168L34.1701 35.2165ZM14.0026 34.8482C7.1538 34.7231 1.50036 40.1738 1.3753 47.0226L-0.624367 46.9861C-0.479137 39.0329 6.08593 32.7033 14.0391 32.8485L14.0026 34.8482ZM1.3753 47.0226C1.29 51.6937 3.79791 55.8102 7.57887 57.9956L6.57805 59.7271C2.19293 57.1926 -0.72347 52.4133 -0.624367 46.9861L1.3753 47.0226ZM8.03315 59.1589C7.79869 59.9111 7.85462 60.7497 8.255 61.4978L6.49164 62.4415C5.82809 61.2016 5.73632 59.8066 6.12377 58.5637L8.03315 59.1589ZM8.255 61.4978L10.2338 65.1954L8.47048 66.1391L6.49164 62.4415L8.255 61.4978ZM10.2338 65.1954C11.0259 66.6754 12.8678 67.233 14.3478 66.441L15.2915 68.2043C12.8376 69.5176 9.78373 68.5929 8.47048 66.1391L10.2338 65.1954ZM14.3478 66.441C15.8277 65.6489 16.3854 63.8071 15.5934 62.3271L17.3567 61.3834C18.67 63.8372 17.7453 66.8911 15.2915 68.2043L14.3478 66.441ZM15.5934 62.3271L14.9709 61.164L16.7343 60.2203L17.3567 61.3834L15.5934 62.3271ZM15.8708 59.6923L25.9616 59.8766L25.925 61.8762L15.8343 61.692L15.8708 59.6923ZM26.9386 60.7793C26.9823 61.2275 27.1269 61.6735 27.3825 62.0848L25.6836 63.1402C25.2624 62.4623 25.0209 61.7206 24.948 60.9735L26.9386 60.7793ZM27.3825 62.0848L29.5955 65.6471L27.8967 66.7025L25.6836 63.1402L27.3825 62.0848ZM29.5955 65.6471C30.4813 67.073 32.3553 67.5108 33.7812 66.625L34.8366 68.3238C32.4725 69.7925 29.3653 69.0666 27.8967 66.7025L29.5955 65.6471ZM33.7812 66.625C35.207 65.7392 35.6448 63.8652 34.759 62.4393L36.4579 61.3839C37.9266 63.748 37.2007 66.8551 34.8366 68.3238L33.7812 66.625ZM34.759 62.4393L34.1786 61.505L35.8774 60.4496L36.4579 61.3839L34.759 62.4393ZM34.9483 59.9805C38.4408 59.7012 41.5378 57.9696 43.6201 55.3772L45.1794 56.6296C42.765 59.6356 39.1688 61.6494 35.1077 61.9741L34.9483 59.9805Z" fill="black" mask="url(#path-22-inside-1_557_116)"/>
<path d="M25.4461 39.3948L25.6641 39.8426C26.1694 40.8809 27.6092 40.9827 28.2557 40.026L28.5345 39.6133C29.181 38.6565 28.5493 37.3587 27.3975 37.2772L26.9007 37.2421C25.7489 37.1606 24.9408 38.3565 25.4461 39.3948Z" fill="#B6ACAC" stroke="black"/>
<ellipse rx="0.621551" ry="0.649484" transform="matrix(-0.913986 0.405745 0.405745 0.913986 43.6381 41.5798)" fill="#171515"/>
<circle r="2.21624" transform="matrix(-0.999833 -0.0182575 -0.0182575 0.999833 36.5425 45.7835)" fill="#171515"/>
<g filter="url(#filter0_i_557_116)">
<rect width="13.5266" height="4.8512" rx="2.4256" transform="matrix(-0.524735 0.851265 0.851265 0.524735 29.9933 34.2916)" fill="#C4C4C4"/>
</g>
<rect x="0.163265" y="0.688" width="12.5266" height="3.8512" rx="1.9256" transform="matrix(-0.524735 0.851265 0.851265 0.524735 29.6565 34.4796)" stroke="black"/>
<circle r="0.704802" transform="matrix(-0.999833 -0.0182575 -0.0182575 0.999833 31.376 38.0934)" fill="#171515"/>
<ellipse rx="0.704802" ry="0.469868" transform="matrix(-0.999833 -0.0182575 -0.0182575 0.999833 29.0056 39.225)" fill="#171515"/>
<circle r="1.17467" transform="matrix(-0.999833 -0.0182575 -0.0182575 0.999833 28.0102 42.2615)" fill="#171515"/>
<circle r="0.704802" transform="matrix(-0.999833 -0.0182575 -0.0182575 0.999833 25.6013 45.5071)" fill="#171515"/>
<path fill-rule="evenodd" clip-rule="evenodd" d="M73 39V37C73 35.6739 73.5268 34.4021 74.4645 33.4645C75.4021 32.5268 76.6739 32 78 32C79.3261 32 80.5979 32.5268 81.5355 33.4645C82.4732 34.4021 83 35.6739 83 37V39C83.5304 39 84.0391 39.2107 84.4142 39.5858C84.7893 39.9609 85 40.4696 85 41V46C85 46.5304 84.7893 47.0391 84.4142 47.4142C84.0391 47.7893 83.5304 48 83 48H73C72.4696 48 71.9609 47.7893 71.5858 47.4142C71.2107 47.0391 71 46.5304 71 46V41C71 40.4696 71.2107 39.9609 71.5858 39.5858C71.9609 39.2107 72.4696 39 73 39V39ZM81 37V39H75V37C75 36.2044 75.3161 35.4413 75.8787 34.8787C76.4413 34.3161 77.2044 34 78 34C78.7956 34 79.5587 34.3161 80.1213 34.8787C80.6839 35.4413 81 36.2044 81 37V37Z" fill="url(#paint2_linear_557_116)"/>
<defs>
<filter id="filter0_i_557_116" x="23.8071" y="35.2033" width="9.40418" height="16.237" filterUnits="userSpaceOnUse" color-interpolation-filters="sRGB">
<feFlood flood-opacity="0" result="BackgroundImageFix"/>
<feBlend mode="normal" in="SourceGraphic" in2="BackgroundImageFix" result="shape"/>
<feColorMatrix in="SourceAlpha" type="matrix" values="0 0 0 0 0 0 0 0 0 0 0 0 0 0 0 0 0 0 127 0" result="hardAlpha"/>
<feOffset dy="4"/>
<feGaussianBlur stdDeviation="2"/>
<feComposite in2="hardAlpha" operator="arithmetic" k2="-1" k3="1"/>
<feColorMatrix type="matrix" values="0 0 0 0 0 0 0 0 0 0 0 0 0 0 0 0 0 0 0.25 0"/>
<feBlend mode="normal" in2="shape" result="effect1_innerShadow_557_116"/>
</filter>
<linearGradient id="paint0_linear_557_116" x1="54.3165" y1="61.9693" x2="59" y2="36" gradientUnits="userSpaceOnUse">
<stop stop-color="#43D882"/>
<stop offset="1" stop-color="#43D882" stop-opacity="0"/>
</linearGradient>
<linearGradient id="paint1_linear_557_116" x1="45.5516" y1="43.9329" x2="5.81349" y2="55.5128" gradientUnits="userSpaceOnUse">
<stop stop-color="#BF9393"/>
<stop offset="1" stop-color="#323841"/>
</linearGradient>
<linearGradient id="paint2_linear_557_116" x1="78" y1="32" x2="78" y2="48" gradientUnits="userSpaceOnUse">
<stop/>
<stop offset="1" stop-color="#1C673C"/>
</linearGradient>
<clipPath id="clip0_557_116">
<rect width="20" height="20" fill="white" transform="translate(64.4949 61.3185) rotate(165)"/>
</clipPath>
</defs>
</svg>

<svg width="96" height="69" fill="none" xmlns="http://www.w3.org/2000/svg"><g opacity=".87"><g opacity=".37" fill="#98D8E7"><ellipse cx="69.165" cy="38.048" rx="9.166" ry="8.88"/><ellipse cx="86.425" cy="38.048" rx="9.166" ry="8.88"/><ellipse cx="71.189" cy="49.235" rx="6.547" ry="6.343"/><ellipse cx="83.807" cy="49.235" rx="6.547" ry="6.343"/><path d="M72.26 37.587h9.642v10.725H72.26z"/></g><g opacity=".55" fill="#98D8E7"><ellipse cx="70.766" cy="39.06" rx="7.636" ry="7.251"/><ellipse cx="85.145" cy="39.06" rx="7.636" ry="7.251"/><ellipse cx="72.452" cy="48.194" rx="5.454" ry="5.179"/><ellipse cx="82.964" cy="48.194" rx="5.454" ry="5.179"/><path d="M73.345 38.683h8.032v8.757h-8.032z"/></g><ellipse cx="72.368" cy="39.635" rx="6.106" ry="5.713" fill="#7FDEE4"/><ellipse cx="83.866" cy="39.635" rx="6.106" ry="5.713" fill="#7FDEE4"/><ellipse cx="73.716" cy="46.831" rx="4.361" ry="4.081" fill="#7FDEE4"/><ellipse cx="82.121" cy="46.831" rx="4.361" ry="4.081" fill="#7FDEE4"/><path fill="#7FDEE4" d="M74.429 39.338h6.423v6.9h-6.423zM80.226 28.102c.496-.44.838-.916 1.025-1.429.195-.512.293-.997.293-1.452 0-.513-.106-.956-.317-1.33a4.81 4.81 0 0 0-.684-.99.799.799 0 0 1-.17-.524c0-.22.06-.448.182-.684.122-.244.281-.468.476-.672.204-.203.436-.37.696-.5.26-.13.533-.195.818-.195.317 0 .582.105.794.317a2.3 2.3 0 0 1 .512.757c.13.301.224.623.281.964.057.334.085.631.085.891 0 .554-.097 1.083-.292 1.587-.196.513-.46.993-.794 1.44a7.113 7.113 0 0 1-1.147 1.234c-.44.382-.904.72-1.392 1.013l-.366-.427zM74.501 28.102c-.496-.44-.838-.916-1.025-1.429-.195-.512-.293-.997-.293-1.452 0-.513.106-.956.317-1.33.204-.383.432-.713.684-.99a.798.798 0 0 0 .17-.524c0-.22-.06-.448-.182-.684a2.723 2.723 0 0 0-.476-.672 2.658 2.658 0 0 0-.696-.5 1.807 1.807 0 0 0-.818-.195c-.317 0-.582.105-.794.317a2.3 2.3 0 0 0-.512.757c-.13.301-.224.623-.281.964-.057.334-.085.631-.085.891 0 .554.097 1.083.292 1.587.196.513.46.993.794 1.44.325.448.708.86 1.147 1.234.44.382.904.72 1.392 1.013l.366-.427z"/></g><g clip-path="url(#a)"><path fill-rule="evenodd" clip-rule="evenodd" d="M45.038 58.25a5.999 5.999 0 0 1 5.992-7.551l.182-.315.707-1.225.707-1.225 1.932-.517-.517-1.932 3.863-1.035 1.036 3.863-3.01 5.214a6 6 0 1 1-10.892 4.723zm6.83 2.31a1 1 0 1 0-.517-1.931 2 2 0 0 1-2.45-1.414 1 1 0 0 0-1.932.517 4 4 0 0 0 4.9 2.829z" fill="url(#b)"/></g><rect x="-.251" y=".661" width="5.578" height="6.988" rx="2.789" transform="scale(-1 1) rotate(24.229 -140.217 -12.296)" fill="#4B4B4B" stroke="#000"/><rect x="-.166" y=".687" width="5.578" height="6.988" rx="2.789" transform="scale(-1 1) rotate(31.427 -116.89 -35.169)" fill="#4B4B4B" stroke="#000"/><path d="M39.609 37.396a1.206 1.206 0 0 0 1.383-1.4c-.198-1.122-1.698-1.369-2.245-.37-.4.73.041 1.635.862 1.77z" fill="#4B4B4B" stroke="#000"/><mask id="d" fill="#fff"><path fill-rule="evenodd" clip-rule="evenodd" d="M44.4 56.003a5.592 5.592 0 0 0 2.74-10.747c-1.099-6.178-6.44-10.92-12.952-11.04l-20.167-.368C6.62 33.713.51 39.603.375 47.004a13.4 13.4 0 0 0 6.703 11.857 4.027 4.027 0 0 0 .295 3.109l1.98 3.697a4.04 4.04 0 0 0 7.122-3.812l-.622-1.163 10.09.184c.059.598.252 1.192.59 1.736l2.213 3.563a4.04 4.04 0 1 0 6.862-4.263l-.58-.935a13.386 13.386 0 0 0 9.372-4.974z"/></mask><path fill-rule="evenodd" clip-rule="evenodd" d="M44.4 56.003a5.592 5.592 0 0 0 2.74-10.747c-1.099-6.178-6.44-10.92-12.952-11.04l-20.167-.368C6.62 33.713.51 39.603.375 47.004a13.4 13.4 0 0 0 6.703 11.857 4.027 4.027 0 0 0 .295 3.109l1.98 3.697a4.04 4.04 0 0 0 7.122-3.812l-.622-1.163 10.09.184c.059.598.252 1.192.59 1.736l2.213 3.563a4.04 4.04 0 1 0 6.862-4.263l-.58-.935a13.386 13.386 0 0 0 9.372-4.974z" fill="url(#c)"/><path d="m44.4 56.003-.78-.626.347-.431.55.064-.117.993zm2.74-10.746-.372.928-.516-.207-.097-.546.985-.175zM7.078 58.86l.5-.865.693.4-.238.763-.955-.298zm.295 3.109-.881.471.881-.471zm1.98 3.697.88-.472-.88.472zm7.122-3.812.882-.472-.882.472zm-.622-1.163-.882.472-.804-1.503 1.704.031-.018 1zm10.09.184.019-1 .89.017.087.886-.996.097zm.59 1.736-.85.528.85-.528zm2.213 3.563.85-.528-.85.528zm5.563 1.3-.528-.85.528.85zm1.3-5.563-.85.527.85-.527zm-.581-.935-.85.528-.865-1.394 1.635-.13.08.996zm9.489-5.967c.15.018.303.028.459.031l-.037 2a6.678 6.678 0 0 1-.656-.044l.233-1.987zm.459.031a4.592 4.592 0 0 0 4.675-4.508l2 .037a6.593 6.593 0 0 1-6.712 6.471l.037-2zm4.675-4.508a4.595 4.595 0 0 0-2.883-4.348l.744-1.857a6.595 6.595 0 0 1 4.14 6.242l-2-.037zm-3.496-5.101c-1.016-5.717-5.96-10.105-11.985-10.215l.037-2c6.998.128 12.737 5.225 13.917 11.865l-1.969.35zM34.17 35.217l-20.167-.369.036-2 20.168.369-.037 2zm-20.167-.369C7.153 34.723 1.5 40.174 1.375 47.023l-2-.037c.146-7.953 6.71-14.283 14.664-14.137l-.036 2zM1.375 47.023A12.4 12.4 0 0 0 7.58 57.996l-1 1.731c-4.386-2.534-7.302-7.314-7.203-12.74l2 .036zm6.658 12.136a3.027 3.027 0 0 0 .222 2.339l-1.763.944a5.027 5.027 0 0 1-.368-3.878l1.91.595zm.222 2.339 1.979 3.697-1.764.944-1.978-3.697 1.763-.944zm1.979 3.697a3.04 3.04 0 0 0 4.114 1.246l.943 1.763a5.04 5.04 0 0 1-6.82-2.065l1.763-.944zm4.114 1.246a3.04 3.04 0 0 0 1.245-4.114l1.764-.944a5.04 5.04 0 0 1-2.066 6.821l-.943-1.763zm1.245-4.114-.622-1.163 1.763-.944.623 1.163-1.764.944zm.278-2.635 10.09.185-.036 2-10.09-.185.036-2zm11.068 1.087c.043.448.188.894.444 1.306l-1.7 1.055a5.022 5.022 0 0 1-.735-2.166l1.99-.195zm.444 1.306 2.213 3.562-1.7 1.055-2.212-3.562 1.698-1.055zm2.213 3.562a3.04 3.04 0 0 0 4.185.978l1.056 1.699a5.04 5.04 0 0 1-6.94-1.621l1.699-1.056zm4.185.978a3.04 3.04 0 0 0 .978-4.186l1.699-1.055a5.04 5.04 0 0 1-1.621 6.94l-1.056-1.699zm.978-4.186-.58-.934 1.698-1.055.58.934-1.698 1.055zm.19-2.459c3.492-.279 6.589-2.01 8.671-4.603l1.56 1.253a14.386 14.386 0 0 1-10.072 5.344l-.16-1.993z" fill="#000" mask="url(#d)"/><path d="m25.446 39.395.218.448a1.5 1.5 0 0 0 2.592.183l.279-.413a1.5 1.5 0 0 0-1.137-2.336l-.497-.035a1.5 1.5 0 0 0-1.455 2.153z" fill="#B6ACAC" stroke="#000"/><ellipse rx=".622" ry=".649" transform="scale(-1 1) rotate(23.938 -119.89 -82.135)" fill="#171515"/><circle r="2.216" transform="scale(-1 1) rotate(-1.046 2489.174 2024.231)" fill="#171515"/><g filter="url(#e)"><rect width="13.527" height="4.851" rx="2.426" transform="scale(-1 1) rotate(58.35 -45.707 -9.715)" fill="#C4C4C4"/></g><rect x=".163" y=".688" width="12.527" height="3.851" rx="1.926" transform="scale(-1 1) rotate(58.35 -45.707 -9.32)" stroke="#000"/><circle r=".705" transform="scale(-1 1) rotate(-1.046 2070.59 1737.43)" fill="#171515"/><ellipse rx=".705" ry=".47" transform="scale(-1 1) rotate(-1.046 2133.75 1608.175)" fill="#171515"/><circle r="1.175" transform="scale(-1 1) rotate(-1.046 2300.55 1555.178)" fill="#171515"/><circle r=".705" transform="scale(-1 1) rotate(-1.046 2479.507 1424.871)" fill="#171515"/><path fill-rule="evenodd" clip-rule="evenodd" d="M73 39v-2a5 5 0 1 1 10 0v2a2 2 0 0 1 2 2v5a2 2 0 0 1-2 2H73a2 2 0 0 1-2-2v-5a2 2 0 0 1 2-2zm8-2v2h-6v-2a3 3 0 0 1 6 0z" fill="url(#f)"/><defs><linearGradient id="b" x1="54.316" y1="61.969" x2="59" y2="36" gradientUnits="userSpaceOnUse"><stop stop-color="#43D882"/><stop offset="1" stop-color="#43D882" stop-opacity="0"/></linearGradient><linearGradient id="c" x1="45.552" y1="43.933" x2="5.813" y2="55.513" gradientUnits="userSpaceOnUse"><stop stop-color="#BF9393"/><stop offset="1" stop-color="#323841"/></linearGradient><linearGradient id="f" x1="78" y1="32" x2="78" y2="48" gradientUnits="userSpaceOnUse"><stop/><stop offset="1" stop-color="#1C673C"/></linearGradient><clipPath id="a"><path fill="#fff" transform="rotate(165 28.211 34.905)" d="M0 0h20v20H0z"/></clipPath><filter id="e" x="23.807" y="35.203" width="9.404" height="16.237" filterUnits="userSpaceOnUse" color-interpolation-filters="sRGB"><feFlood flood-opacity="0" result="BackgroundImageFix"/><feBlend in="SourceGraphic" in2="BackgroundImageFix" result="shape"/><feColorMatrix in="SourceAlpha" values="0 0 0 0 0 0 0 0 0 0 0 0 0 0 0 0 0 0 127 0" result="hardAlpha"/><feOffset dy="4"/><feGaussianBlur stdDeviation="2"/><feComposite in2="hardAlpha" operator="arithmetic" k2="-1" k3="1"/><feColorMatrix values="0 0 0 0 0 0 0 0 0 0 0 0 0 0 0 0 0 0 0.25 0"/><feBlend in2="shape" result="effect1_innerShadow_557_116"/></filter></defs></svg>
